public/svg/streaming/anime-network.svg

<?xml version="1.0" encoding="UTF-8" standalone="no"?>
<svg width="48px" height="50px" viewBox="0 0 48 50" version="1.1" xmlns="http://www.w3.org/2000/svg" xmlns:xlink="http://www.w3.org/1999/xlink">
    <defs></defs>
    <g stroke="none" stroke-width="1" fill="none" fill-rule="evenodd">
        <g transform="translate(-1.000000, 0.000000)" fill="#957DF9">
            <g transform="translate(1.000000, 0.000000)">
                <path d="M37.7699336,0.144518272 C38.1287375,0.0431893688 38.5033223,0.0930232558 38.8704319,0.0830564784 C40.0066445,0.030730897 41.1495017,0.289036545 42.1818937,0.757475083 C42.6038206,0.909468439 42.9451827,1.21262458 43.3230897,1.44518272 C43.9543189,1.9833887 44.5016611,2.62209302 44.9061462,3.34883721 C45.6910299,4.80647841 45.9094684,6.48504983 46.0465116,8.10548173 C46.1810631,8.66362126 46.0024917,9.25332226 46.1727575,9.80813953 C46.1910299,10.7184385 46.1710963,11.6303987 46.1810631,12.5415282 C46.3936877,13.5789037 46.1312292,14.660299 46.3438538,15.6976744 C46.3513289,16.4177741 46.339701,17.1370432 46.3471761,17.8571429 C46.5581395,18.8662791 46.2990033,19.9202658 46.5099668,20.929402 C46.5174419,21.6495017 46.505814,22.3696013 46.5124585,23.089701 C46.6802326,23.9626246 46.5556478,24.8621262 46.595515,25.7466777 C46.8064784,26.7566445 46.5481728,27.8106312 46.7591362,28.8197674 C46.7666113,29.5398671 46.7549834,30.2599668 46.7624585,30.9800664 C46.9750831,32.0174419 46.7126246,33.0988372 46.9252492,34.1362126 C46.9385382,34.9053156 46.9086379,35.6769103 46.9377076,36.4460133 C47.0581395,36.763289 47.1503322,37.0980066 47.0755814,37.4393688 C46.9127907,37.9933555 47.1038206,38.583887 46.948505,39.1403654 C46.8330565,40.2400332 46.5099668,41.358804 45.8006645,42.2292359 C45.5199336,42.6702658 45.0431894,42.9136213 44.6503322,43.2392027 C43.480897,44.0033223 42.1586379,44.4842193 40.8297342,44.8986711 C38.8637874,45.4576412 36.8612957,45.8787375 34.8488372,46.2284053 C34.0481728,46.3729236 33.2408638,46.4634551 32.4443522,46.622093 C32.4285714,46.1619601 32.7923588,45.8197674 32.980897,45.429402 C33.7300664,44.0265781 34.4493355,42.5996678 34.9601329,41.089701 C35.9700997,38.2483389 36.608804,35.2890365 37.0697674,32.3139535 C37.2450166,31.1644518 37.358804,30.0074751 37.4343854,28.8480066 C37.5307309,28.1744186 37.4435216,27.4908638 37.5440199,26.8172757 C37.5980066,26.0166113 37.595515,25.2093023 37.5016611,24.4119601 C37.4501661,23.3978405 37.5390365,22.3803987 37.448505,21.3679402 C37.3463455,19.5365449 37.1702658,17.7109635 37.0373754,15.8820598 C36.8679402,14.0257475 36.7491694,12.1611296 36.4584718,10.3181063 C36.2774086,9.20265781 35.7807309,8.1038206 34.8936877,7.37624585 C34.0797342,6.61129568 33.1187708,6.03239203 32.1810631,5.43604651 C31.3048173,4.91943522 30.4260797,4.40614618 29.5265781,3.93106312 C29.0232558,3.64202658 28.4958472,3.39784053 28.0083056,3.08222591 C28.0207641,3.03654485 28.0456811,2.94601329 28.0581395,2.90116279 C28.4335548,2.72342193 28.8363787,2.62043189 29.2250831,2.47923588 C29.7250831,2.26578073 30.2491694,2.11960133 30.7624585,1.9410299 C33.0481728,1.17109635 35.3637874,0.412790698 37.7699336,0.144518272 L37.7699336,0.144518272 Z" id="Shape"></path>
                <path d="M9.10215947,8.3538206 C10.3563123,7.94601329 11.6187708,7.56312292 12.8920266,7.21677741 C12.9269103,7.66112957 12.9343854,8.10880399 12.89701,8.55315615 C12.7948505,9.43604651 12.8654485,10.326412 12.8413621,11.211794 C12.8098007,11.9352159 12.9684385,12.6486711 12.929402,13.372093 C12.9468439,14.6171096 12.8654485,15.8671096 13.0066445,17.1071429 C12.9842193,18.0415282 13.0872093,18.9709302 13.1345515,19.9028239 C13.4534884,24.6818937 14.0905316,29.4435216 15.1071429,34.1254153 C15.5373754,36.2350498 16.1395349,38.3048173 16.7682724,40.3629568 C17.7458472,43.4119601 18.9609635,46.3770764 20.1727575,49.3380399 L20.1943522,49.391196 C19.2641196,49.6378738 18.3156146,49.8197674 17.3612957,49.9177741 C16.75,49.9177741 16.1395349,49.9144518 15.5282392,49.9186047 C14.5780731,49.8504983 13.6270764,49.6669435 12.7400332,49.3031561 C11.9385382,48.9435216 11.2674419,48.3488372 10.7126246,47.6769103 C10.0772425,46.8637874 9.60548173,45.9460133 9.10049834,45.0523256 C8.85465116,44.7209302 8.7923588,44.3039867 8.64784053,43.9260797 C8.39784053,43.1137874 8.06976744,42.3297342 7.81727575,41.5182724 C6.7076412,38.1403654 5.46262458,34.8131229 4.2358804,31.4775748 C3.26495017,28.7990033 2.36378738,26.089701 1.6769103,23.3222591 C1.09800664,21.0539867 0.552325581,18.7757475 0.0631229236,16.4850498 C0.108803987,15.9451827 0.0257475083,15.3903654 0.15448505,14.8571429 C0.295681063,13.7333887 0.887043189,12.692691 1.72508306,11.9401993 C2.34302326,11.4393688 2.97342193,10.942691 3.68023256,10.5730897 C4.7358804,9.9269103 5.90365449,9.50083056 7.04817276,9.04318937 C7.74169435,8.8372093 8.3961794,8.51910299 9.10215947,8.3538206 L9.10215947,8.3538206 Z" id="Shape"></path>
                <path d="M24.7250831,18.3945183 C24.8488372,17.9377076 24.9227575,17.4651163 25.108804,17.0274086 C25.6702658,18.7865449 26.1760797,20.5664452 26.5199336,22.3820598 C27.0157807,25.0855482 27.429402,27.8122924 27.5689369,30.5589701 C27.6818937,31.2674419 27.6054817,31.9875415 27.6337209,32.7009967 C26.0166113,32.2848837 24.3995017,31.8662791 22.782392,31.4501661 C22.7807309,31.1760797 22.7898671,30.9019934 22.833887,30.6320598 C23.0282392,29.0332226 23.1594684,27.4269103 23.3621262,25.8297342 C23.6004983,23.3181063 24.0365449,20.8222591 24.7250831,18.3945183 L24.7250831,18.3945183 Z" id="Shape"></path>
                <path d="M25.7599668,43.8986711 C26.494186,43.8289037 27.2416944,43.9692691 27.9684385,43.807309 C27.9327243,44.5440199 28.019103,45.2873754 27.8995017,46.0199336 C27.845515,46.5365449 27.8920266,47.057309 27.8803987,47.5755814 C26.6935216,47.833887 25.505814,48.0847176 24.320598,48.3488372 C24.1744186,48.377907 24.0257475,48.4136213 23.8762458,48.3995017 C23.7848837,48.320598 23.7940199,48.1968439 23.7832226,48.089701 C23.6710963,46.711794 23.4509967,45.3430233 23.3571429,43.9642857 C24.1578073,43.9435216 24.9651163,44.0265781 25.7599668,43.8986711 L25.7599668,43.8986711 Z" id="Shape"></path>
            </g>
        </g>
    </g>
</svg>

<svg width="48" height="50" viewBox="0 0 48 50" xmlns="http://www.w3.org/2000/svg"><g fill="#957DF9" fill-rule="evenodd"><path d="M37.77.145c.36-.102.733-.052 1.1-.062 1.137-.052 2.28.206 3.312.674.422.152.763.456 1.14.688.632.538 1.18 1.177 1.584 1.904.785 1.456 1.003 3.135 1.14 4.755.135.56-.044 1.148.127 1.703.018.91-.002 1.822.008 2.734.214 1.037-.05 2.118.164 3.156.007.72-.004 1.44.003 2.16.21 1.008-.048 2.062.163 3.07.007.722-.004 1.442.002 2.162.168.873.044 1.772.084 2.657.21 1.01-.048 2.064.163 3.073.007.72-.005 1.44.002 2.16.213 1.037-.05 2.12.163 3.156.014.77-.016 1.54.013 2.31.12.317.212.652.138.993-.163.553.028 1.144-.127 1.7-.117 1.1-.44 2.22-1.15 3.09-.28.44-.757.684-1.15 1.01-1.17.763-2.49 1.244-3.82 1.66-1.966.558-3.97.98-5.98 1.328-.802.145-1.61.235-2.406.394-.015-.46.348-.802.537-1.193.75-1.403 1.47-2.83 1.98-4.34 1.01-2.842 1.65-5.8 2.11-8.776.175-1.15.29-2.307.364-3.466.097-.674.01-1.357.11-2.03.054-.8.052-1.61-.042-2.406-.052-1.014.037-2.032-.053-3.044-.104-1.83-.28-3.657-.413-5.486-.17-1.856-.288-3.72-.58-5.564-.18-1.115-.676-2.214-1.563-2.942-.814-.765-1.775-1.344-2.713-1.94-.875-.517-1.754-1.03-2.653-1.505-.504-.288-1.03-.532-1.52-.848.014-.045.04-.136.05-.18.377-.18.78-.282 1.168-.423.5-.214 1.024-.36 1.537-.54C33.048 1.17 35.364.414 37.77.146zM9.102 8.354c1.254-.408 2.517-.79 3.79-1.137.035.444.042.892.005 1.336-.102.883-.032 1.773-.056 2.66-.03.722.128 1.436.09 2.16.017 1.244-.065 2.494.077 3.734-.023.935.08 1.864.128 2.796.318 4.78.956 9.54 1.972 14.222.43 2.11 1.033 4.18 1.66 6.238.98 3.05 2.194 6.014 3.406 8.975l.02.053c-.93.248-1.877.43-2.832.528-.61 0-1.22-.004-1.832 0-.95-.068-1.9-.25-2.788-.615-.8-.36-1.473-.954-2.027-1.626-.636-.813-1.108-1.73-1.613-2.625-.245-.33-.308-.748-.452-1.126-.25-.812-.578-1.596-.83-2.408-1.11-3.378-2.355-6.705-3.582-10.04-.97-2.68-1.872-5.388-2.56-8.156C1.1 21.054.553 18.776.064 16.485c.046-.54-.037-1.095.09-1.628.143-1.124.734-2.164 1.572-2.917.618-.5 1.248-.997 1.955-1.367 1.056-.646 2.224-1.072 3.368-1.53.694-.206 1.348-.524 2.054-.69zM24.725 18.395c.124-.457.198-.93.384-1.368.56 1.76 1.066 3.54 1.41 5.355.496 2.704.91 5.43 1.05 8.177.112.707.035 1.428.064 2.14-1.617-.415-3.234-.834-4.852-1.25 0-.274.008-.548.052-.818.194-1.6.325-3.205.528-4.802.238-2.512.675-5.008 1.363-7.435zM25.76 43.9c.734-.07 1.482.07 2.208-.093-.035.737.05 1.48-.068 2.213-.054.517-.008 1.037-.02 1.556-1.186.258-2.374.51-3.56.773-.146.028-.294.064-.444.05-.09-.08-.082-.203-.093-.31-.112-1.378-.332-2.747-.426-4.126.8-.02 1.608.063 2.403-.065z"/></g></svg>
